X:0106
T:Flowers of Edinburgh
P:Flowers of Edinburgh
C:Traditional
R:Reel (8x32)
B:RSCDS 1-6
Z:Anselm Lingnau <anselm@strathspey.org>
M:C
L:1/8
K:G
|:GE|"G"D2 DE G2 GA|BGBd "Am"cBAG|"D"FGEF DEFG|"D7"AFdF "C"E2 GE|
     "G"D2 DE "(Em)"G2 GA|"(G)"BGBd "C"efge|"G"dcBA "D7"GFGA|"G"B2 G2 G2:|
|:d2|"G"g2 g2 gbag|"B7"f2 f2 fagf|"Em"e2 ef gfed|"e"B2 "d"e2 "c"e2 ge|
     "G"dBGB d2 d2|"C"edef "A7"g2 fe|"G"dcBA "D7"GFGA|"G"B2 G2 G2:|
